X: 31305
T: Paddy Kelly's
R: reel
M: 4/4
K: Gmajor
G2dG BGdG|~G2dG GFDE|=F2cF AFcF|~=F2cF FECE|
G2dG BGdG|~G2dG GFDE|=FGAd =fefd|1 cAFA G3D:|2 cAFA G2Bd||
|:~g2dg gfdg|~g2af gfde|=f2cf Afcf|=fga^f gfd2|
g2af gfdg|~g2af gfde|=f2a^f gfdc|1 (3Bcd AF G2Bd:|2 (3Bcd AF G2GF||
|:GA_Bz cA=BG|~G2Bd gdBG|~=F2EF cFAF|~=F2GF DEFD|
GA_Bz cA=BG|~G2FD GABc|dg~g2 fdcA|1 (3Bcd AF G2GF:|2 (3Bcd AF GABc||
dg~g2 aggf|dggf dcBc|d=f~f2 gf~f2|de~=f2 dcAB|
dg~g2 afgf|dggf dcBc|de=fa g^fdc|(3Bcd AF G3A|
dg~g2 aggf|dggf dcAc|defg agfd|gbag fdcA|
dg~g2 afgf|dggf dcBc|defa gefd|cAFA G3D||

